svgs/light/mill-sign.svg

<svg xmlns="http://www.w3.org/2000/svg" viewBox="0 0 384 512"><!--! Font Awesome Pro 6.0.0-alpha3 by @fontawesome - https://fontawesome.com License - https://fontawesome.com/license (Commercial License) --><path d="M384 200v232c0 8.844-7.156 16-16 16S352 440.8 352 432V200C352 160.3 319.7 128 280 128c-11.09 0-21.48 2.73-30.87 7.232L208 258.6V432c0 8.844-7.156 16.06-16 16.06S176 440.8 176 432v-77.38l-48.81 146.4c-2.25 6.688-8.436 10.94-15.12 10.94c-1.688 0-3.439-.2499-5.126-.8124c-8.375-2.812-12.91-11.88-10.12-20.25L176 253.4V200C176 160.3 143.7 128 104 128S32 160.3 32 200v232C32 440.8 24.84 448 16 448S0 440.8 0 432v-320C0 103.2 7.156 96 16 96S32 103.2 32 112v13.25C50.71 107.2 76.03 96 104 96C141.2 96 173.6 115.8 192 145.2c7.908-12.65 18.26-23.57 30.67-31.82l34.14-102.4c2.812-8.344 11.94-12.91 20.25-10.12c8.375 2.812 12.91 11.88 10.12 20.25l-25.6 76.8C267.6 96.78 273.7 96 280 96C337.3 96 384 142.7 384 200z"/></svg>

<svg xmlns="http://www.w3.org/2000/svg" viewBox="0 0 384 512"><!-- Font Awesome Pro 6.0.0-alpha2 by @fontawesome - https://fontawesome.com License - https://fontawesome.com/license (Commercial License) --><path d="M384 200V432C384 440.844 376.844 448 368 448S352 440.844 352 432V200C352 160.312 319.688 128 280 128C268.912 128 258.523 130.73 249.131 135.232L208 258.625V432C208 440.844 200.844 448 192 448S176 440.844 176 432V354.625L127.188 501.062C124.938 507.75 118.688 512 112 512C110.312 512 108.625 511.75 106.938 511.188C98.562 508.375 94.031 499.312 96.813 490.938L176 253.375V200C176 160.312 143.688 128 104 128S32 160.312 32 200V432C32 440.844 24.844 448 16 448S0 440.844 0 432V112C0 103.156 7.156 96 16 96S32 103.156 32 112V125.254C50.711 107.227 76.027 96 104 96C141.174 96 173.607 115.766 192 145.182C199.908 132.533 210.256 121.607 222.67 113.365L256.813 10.938C259.625 2.594 268.75 -1.969 277.063 0.813C285.438 3.625 289.969 12.688 287.188 21.063L261.588 97.861C267.586 96.781 273.695 96 280 96C337.344 96 384 142.656 384 200Z"/></svg>
